T: Humours Of Trim, The
M: 6/8
L: 1/8
K: Dmaj
|:~F3 DED|D2d cAG|FAF DED|A2F GFE|FEF DED|D2d cAG|FAF GBG|A2F GFE:|D2d cAd|cAd cAG|F2d cAG|FAF GEA|D2d cAd|fed cAG|FAF GBG|A2F GFE:|though McSherry uses |d=cA d=cA| instead of |dcA dcA|
